svg/cog_sync_outline.svg

<svg xmlns="http://www.w3.org/2000/svg" viewBox="0 0 24 24"><path d="M11.7 20h-.4l-.4-2.6c-1.2-.2-2.2-.9-3-1.8l-2.4 1-.8-1.3 2.1-1.6q-.6-1.8 0-3.6L4.7 8.7l.8-1.3 2.4 1q1.2-1.35 3-1.8l.3-2.6h1.5l.4 2.6c1.2.2 2.3.9 3 1.8l2.4-1 .8 1.3-2.1 1.5q.3.9.3 1.8h.5c.5 0 1 .1 1.5.2V12l-.1-1 2.1-1.6c.2-.2.2-.4.1-.6l-2-3.5c-.1-.3-.3-.3-.6-.3l-2.5 1c-.5-.4-1.1-.7-1.7-1l-.4-2.7c.1-.1-.2-.3-.4-.3h-4c-.2 0-.5.2-.5.4l-.4 2.7c-.6.2-1.1.6-1.7.9L5 5c-.3 0-.5 0-.7.3l-2 3.5c-.1.2 0 .4.2.6L4.6 11l-.1 1 .1 1-2.1 1.7c-.2.2-.2.4-.1.6l2 3.5c.1.2.3.2.6.2l2.5-1c.5.4 1.1.7 1.7 1l.4 2.7c0 .2.2.4.5.4h2.5c-.5-.7-.7-1.4-.9-2.1m4.3-7.7V12c0-2.2-1.8-4-4-4s-4 1.8-4 4 1.8 4 4 4c.7-1.7 2.2-3.1 4-3.7m-6-.3c0-1.1.9-2 2-2s2 .9 2 2-.9 2-2 2-2-.9-2-2m8 2.5V13l-2.2 2.2 2.2 2.2V16c1.4 0 2.5 1.1 2.5 2.5 0 .4-.1.8-.3 1.1l1.1 1.1c1.2-1.8.7-4.3-1.1-5.5-.6-.5-1.4-.7-2.2-.7m0 6.5c-1.4 0-2.5-1.1-2.5-2.5 0-.4.1-.8.3-1.1l-1.1-1.1c-1.2 1.8-.7 4.3 1.1 5.5.7.4 1.4.7 2.2.7V24l2.2-2.2-2.2-2.3z"/></svg>

<?xml version="1.0" encoding="UTF-8"?><!DOCTYPE svg PUBLIC "-//W3C//DTD SVG 1.1//EN" "http://www.w3.org/Graphics/SVG/1.1/DTD/svg11.dtd"><svg xmlns="http://www.w3.org/2000/svg" xmlns:xlink="http://www.w3.org/1999/xlink" version="1.1" id="mdi-cog-sync-outline" width="24" height="24" viewBox="0 0 24 24"><path d="M11.7 20H11.3L10.9 17.4C9.7 17.2 8.7 16.5 7.9 15.6L5.5 16.6L4.7 15.3L6.8 13.7C6.4 12.5 6.4 11.3 6.8 10.1L4.7 8.7L5.5 7.4L7.9 8.4C8.7 7.5 9.7 6.9 10.9 6.6L11.2 4H12.7L13.1 6.6C14.3 6.8 15.4 7.5 16.1 8.4L18.5 7.4L19.3 8.7L17.2 10.2C17.4 10.8 17.5 11.4 17.5 12H18C18.5 12 19 12.1 19.5 12.2V12L19.4 11L21.5 9.4C21.7 9.2 21.7 9 21.6 8.8L19.6 5.3C19.5 5 19.3 5 19 5L16.5 6C16 5.6 15.4 5.3 14.8 5L14.4 2.3C14.5 2.2 14.2 2 14 2H10C9.8 2 9.5 2.2 9.5 2.4L9.1 5.1C8.5 5.3 8 5.7 7.4 6L5 5C4.7 5 4.5 5 4.3 5.3L2.3 8.8C2.2 9 2.3 9.2 2.5 9.4L4.6 11L4.5 12L4.6 13L2.5 14.7C2.3 14.9 2.3 15.1 2.4 15.3L4.4 18.8C4.5 19 4.7 19 5 19L7.5 18C8 18.4 8.6 18.7 9.2 19L9.6 21.7C9.6 21.9 9.8 22.1 10.1 22.1H12.6C12.1 21.4 11.9 20.7 11.7 20M16 12.3V12C16 9.8 14.2 8 12 8S8 9.8 8 12C8 14.2 9.8 16 12 16C12.7 14.3 14.2 12.9 16 12.3M10 12C10 10.9 10.9 10 12 10S14 10.9 14 12 13.1 14 12 14 10 13.1 10 12M18 14.5V13L15.8 15.2L18 17.4V16C19.4 16 20.5 17.1 20.5 18.5C20.5 18.9 20.4 19.3 20.2 19.6L21.3 20.7C22.5 18.9 22 16.4 20.2 15.2C19.6 14.7 18.8 14.5 18 14.5M18 21C16.6 21 15.5 19.9 15.5 18.5C15.5 18.1 15.6 17.7 15.8 17.4L14.7 16.3C13.5 18.1 14 20.6 15.8 21.8C16.5 22.2 17.2 22.5 18 22.5V24L20.2 21.8L18 19.5V21Z" /></svg>
